blockchains/digibyte/logo.svg

<svg fill="none" height="250" viewBox="0 0 250 250" width="250" xmlns="http://www.w3.org/2000/svg" xmlns:xlink="http://www.w3.org/1999/xlink"><clipPath id="a"><path d="m0 0h250v250h-250z"/></clipPath><g clip-path="url(#a)"><path d="m124.911.714355c-68.5716 0-124.196645 55.714245-124.196645 124.285645 0 68.571 55.714245 124.286 124.285645 124.286 68.571 0 124.286-55.625 124.286-124.286 0-68.6606-55.715-124.285645-124.375-124.285645z" fill="#06c"/><path d="m124.911 225.982c55.771 0 100.982-45.211 100.982-100.982 0-55.7709-45.211-100.9822-100.982-100.9822s-100.9823 45.2113-100.9823 100.9822c0 55.771 45.2113 100.982 100.9823 100.982z" fill="#002352"/><path d="m156.071 74.375 3.572-9.2857c.357-.9822-.357-1.9643-1.339-1.9643h-13.304l-4.286 10.9821h-5.893l3.393-9.0178c.357-.9822-.357-1.9643-1.339-1.9643h-13.304l-4.107 10.9821h-41.6962c-1.875 0-3.6607 1.0715-4.6428 2.6786l-10.3572 18.3036h77.7682c2.589 0 5.089.4464 7.5 1.4286 4.643 1.875 10.089 6.1611 8.66 15.8031-2.232 16.161-18.75 44.733-54.464 45.179l18.482-48.036c.715-1.964-.714-4.018-2.857-4.018h-24.732l-29.9107 73.393s5.9821.715 15.4464.715l-3.0357 7.678h13.6607c1.0714 0 2.0535-.625 2.4107-1.696l2.5893-6.607c2.0536-.179 4.0178-.447 6.1603-.625l-3.3925 8.928h13.6605c1.072 0 2.054-.625 2.411-1.696l3.929-10.09c22.41-5.089 46.339-16.25 60.714-39.642 28.839-47.1433-1.072-59.2861-21.697-61.429z" fill="#fff"/></g></svg>

<svg width="250" height="250" viewBox="0 0 250 250" fill="none" xmlns="http://www.w3.org/2000/svg">
<g clip-path="url(#clip0_8_223)">
<path d="M124.911 0.714355C56.3394 0.714355 0.714355 56.4286 0.714355 125C0.714355 193.571 56.4286 249.286 125 249.286C193.571 249.286 249.286 193.661 249.286 125C249.286 56.3394 193.571 0.714355 124.911 0.714355Z" fill="#0066CC"/>
<path d="M124.911 225.982C180.682 225.982 225.893 180.771 225.893 125C225.893 69.2291 180.682 24.0178 124.911 24.0178C69.14 24.0178 23.9287 69.2291 23.9287 125C23.9287 180.771 69.14 225.982 124.911 225.982Z" fill="#002352"/>
<path d="M156.071 74.375L159.643 65.0893C160 64.1071 159.286 63.125 158.304 63.125H145L140.714 74.1071H134.821L138.214 65.0893C138.571 64.1071 137.857 63.125 136.875 63.125H123.571L119.464 74.1071H77.7678C75.8928 74.1071 74.1071 75.1786 73.125 76.7857L62.7678 95.0893H140.536C143.125 95.0893 145.625 95.5357 148.036 96.5179C152.679 98.3929 158.125 102.679 156.696 112.321C154.464 128.482 137.946 157.054 102.232 157.5L120.714 109.464C121.429 107.5 120 105.446 117.857 105.446H93.125L63.2143 178.839C63.2143 178.839 69.1964 179.554 78.6607 179.554L75.625 187.232H89.2857C90.3571 187.232 91.3392 186.607 91.6964 185.536L94.2857 178.929C96.3393 178.75 98.3035 178.482 100.446 178.304L97.0535 187.232H110.714C111.786 187.232 112.768 186.607 113.125 185.536L117.054 175.446C139.464 170.357 163.393 159.196 177.768 135.804C206.607 88.6607 176.696 76.5179 156.071 74.375Z" fill="white"/>
</g>
<defs>
<clipPath id="clip0_8_223">
<rect width="250" height="250" fill="white"/>
</clipPath>
</defs>
</svg>
